X:1
T: Mist of the Loch
C:
R:Reel
Q: 232
K:D
M:4/4
L:1/8
|:D2 dB AF FB|AF BF AF F1/2F1/2F|AB dB Ad fd|eB B1/2B1/2B eB B1/2B1/2B|
Ad cd BA FB|AF dF AF F1/2F1/2F|AB df af ec|((3dcB) AG FD D2|
ab ag fg fe|de fd BA Bd|Ad d1/2d1/2d Ad fd|((3efe) df eB B1/2B1/2B|
ab ag fg fe|dc BA BF F1/2F1/2F|AB de ((3fga) ec|dB AG FD D2:|
